public/avatar/body/44.svg

<svg xmlns:xlink="http://www.w3.org/1999/xlink" height="82" width="84.85" xmlns="http://www.w3.org/2000/svg"><g transform="translate(37.4 42.25)"><use height="38" transform="translate(-11.95 -17.45)" width="32.05" xlink:href="#a"/><use height="21.6" transform="translate(-12.25 -17.95)" width="32.65" xlink:href="#b"/><use height="30.1" transform="translate(-19.15 1.8)" width="46.7" xlink:href="#c"/><use height="6.55" transform="translate(11.35 12.5)" width="7.15" xlink:href="#d"/><use height="8.4" transform="translate(-.25 13.6)" width="10.05" xlink:href="#e"/><use height="6.55" transform="translate(-8.9 12.75)" width="7.15" xlink:href="#d"/><use height="10.8" transform="translate(17.85 1.7)" width="7.35" xlink:href="#f"/><use height="10.8" transform="matrix(-1 0 0 1 -9.85 1.7)" width="7.35" xlink:href="#f"/><use height="9.15" transform="translate(-12.35 1.8)" width="32.6" xlink:href="#g"/></g><defs><use height="38" width="32.05" xlink:href="#h" id="a"/><use height="21.6" width="32.65" xlink:href="#i" id="b"/><use height="6.55" width="7.15" xlink:href="#j" id="d"/><use height="8.4" width="10.05" xlink:href="#k" id="e"/><use height="10.8" width="7.35" xlink:href="#l" id="f"/><g id="c"><path d="m-1.9 25.15.35.9 3.35.2.3-.5Q3.55 27.5 5.8 27l.55-.55.05-.45.65.3 2.4.3.75-.1.3-.65 3.8-.1.1-.45 1.6.35q1.3-.1 1.85-1.25l3.15-.5.9-.9.85.25q2.45 0 3.55-2.2l.75 4.25-1.05.8-1.45.3q-.9-.35-1.5-1.1-.3.85-.95 1.4-.65.5-1.4.25l-1.1-.5-.35.85-.75 1.25-.85.5q-.9.25-1.7-.25l-.8 2-3.8-1v1l-1.05.4h-.85q-1.1-.45-2.1-1.1l-.55.6-1 .55q-.95.35-1.55-.25L3.1 29.95q-.95 1.2-2.6 1.2-1.35-.3-2.3-1.55-.7 1.05-1.95 1.25-2-.05-3-2.05l-1.25.55q-.65.35-1.4-.2-.85-.7-1.25-1.8-.65.65-1.65.55l-1.05-.55-.5-.65q-.45-1.45-.4-2.65-.65.4-1.35.6l-1 .1q-1.55-.45-2.05-2L-17 20.5q.95 1.3 2.55 1.55l1.7-.2.6-.3q-.4 1.15.55 1.85.6.4 1.35.2l1-.55.05 1.35 1.1.8 2.2-.4q.2.9 1.15 1.1 1.65.45 2.85-.75" fill="#09c" fill-rule="evenodd" transform="translate(19.15 -1.8)"/><path d="M20.4 13.5q3.35 2.35 5.15 5.95l.75 1.6q-1.1 2.2-3.55 2.2L21.9 23l-.9.9-3.15.5q-.55 1.15-1.85 1.25l-1.6-.35-.1.45-3.8.1-.3.65-.75.1-2.4-.3-.65-.3-.05.45-.55.55q-2.25.5-3.7-1.25l-.3.5-3.35-.2-.35-.9 1.2-6.55.7-.65q1.1-.85 2.65-.7l.2.25q.65 1.1.8 2.55l.25 3.9.2-1.4.4-3.2q.1-.7.5-1.45l1.65.15.15.2q.85 3.25.95 6.4l.05-6.3.4-.65 1.4-.05 1.55 4.05-.8-3.25.1-.05 1.2-1.1.3-.2.3.15.6.6L14 20.2l.9 2.6-.2-1.2-.6-3.45q-.05-.45.05-.9l.4-1 .7-.05.3.25q1.05.8 1.55 2l.9 2 .5 1.2-1.55-5.4.2-.25q.4-.35.9-.55l.7-.2 2.7 5.05-2-5.75.95-1.05m-37.4 7 2.15-2.5q2.3-2.75 5.5-4.5-1.65-3.35-2.25-7.1l-.25-3.5q1.3 1.6 2.45 3.55.75 1.25.75 2.65l3.45 2q1.3.75 1.55 2.2 2.3-2.3 5.2-1.35 1 .2 1.75 1l1.3 1.55q1.2-2.3 3.7-2.6 2.5.1 4.75 1.6l.2-1.1q.1-.8-.3-1.55l.05-.05 5.5-2.45 1.25-6.05.3 2.75q.4 4-1.25 7.7-2.3 1-4.85 1.65-3.3 1-6.7 1.15-3.55.45-7.05 0l-7.55-1.35-2-.7.4.9q-.2 1.1-.8 1.9l-1.9 2.1q.85-.55 1.8-1 .6-.4 1.35-.5l.25.15-1.3 2.6Q-8.05 18-6.1 17.1q.8-.3 1.1.4l-1.6 4.75 1.9-3.85q.75-1.55 2.4-1.3l.7.45-.3 7.6q-1.2 1.2-2.85.75-.95-.2-1.15-1.1l-2.2.4-1.1-.8-.05-1.35-1 .55q-.75.2-1.35-.2-.95-.7-.55-1.85l-.6.3-1.7.2q-1.6-.25-2.55-1.55" fill="#fff" fill-rule="evenodd" transform="translate(19.15 -1.8)"/><path d="m20.4 13.5-.95 1.05 2 5.75-2.7-5.05-.7.2q-.5.2-.9.55l-.2.25 1.55 5.4-.5-1.2-.9-2q-.5-1.2-1.55-2l-.3-.25-.7.05-.4 1q-.1.45-.05.9l.6 3.45.2 1.2-.9-2.6-1.15-2.35-.6-.6-.3-.15-.3.2-1.2 1.1-.1.05.8 3.25-1.55-4.05-1.4.05-.4.65-.05 6.3q-.1-3.15-.95-6.4l-.15-.2L5 17.9q-.4.75-.5 1.45l-.4 3.2-.2 1.4-.25-3.9q-.15-1.45-.8-2.55l-.2-.25q-1.55-.15-2.65.7l-.7.65-1.2 6.55.3-7.6-.7-.45q-1.65-.25-2.4 1.3l-1.9 3.85L-5 17.5q-.3-.7-1.1-.4-1.95.9-3.45 2.55l1.3-2.6-.25-.15q-.75.1-1.35.5-.95.45-1.8 1l1.9-2.1q.6-.8.8-1.9l-.4-.9 2 .7L.2 15.55q3.5.45 7.05 0 3.4-.15 6.7-1.15 2.55-.65 4.85-1.65l1.6.75M-8.65 9.1l1.4-.25 4.55-.15 4.3.95 2.8.8 2.95-.6q2.85-.75 5.8-1.25l5.35-.25L13 10.8l-.05.05q.4.75.3 1.55l-.2 1.1Q10.8 12 8.3 11.9q-2.5.3-3.7 2.6l-1.3-1.55q-.75-.8-1.75-1-2.9-.95-5.2 1.35-.25-1.45-1.55-2.2l-3.45-2" fill="#bad8ff" fill-rule="evenodd" transform="translate(19.15 -1.8)"/><path d="m26.3 21.05-.75-1.6q-1.8-3.6-5.15-5.95m6.65 11.8-1.05.8-1.45.3q-.9-.35-1.5-1.1-.3.85-.95 1.4-.65.5-1.4.25l-1.1-.5-.35.85-.75 1.25-.85.5q-.9.25-1.7-.25l-.8 2-3.8-1v1l-1.05.4h-.85q-1.1-.45-2.1-1.1l-.55.6-1 .55q-.95.35-1.55-.25L3.1 29.95q-.95 1.2-2.6 1.2-1.35-.3-2.3-1.55-.7 1.05-1.95 1.25-2-.05-3-2.05l-1.25.55q-.65.35-1.4-.2-.85-.7-1.25-1.8-.65.65-1.65.55l-1.05-.55-.5-.65q-.45-1.45-.4-2.65-.65.4-1.35.6l-1 .1q-1.55-.45-2.05-2L-17 20.5l2.15-2.5q2.3-2.75 5.5-4.5-1.65-3.35-2.25-7.1l-.25-3.5" fill="none" stroke="#000" stroke-linecap="round" stroke-linejoin="round" transform="translate(19.15 -1.8)"/><path d="m26.3 21.05.75 4.25m-7.3-23 .3 2.75q.4 4-1.25 7.7l1.6.75" fill="none" stroke="#333" stroke-linecap="round" stroke-linejoin="round" transform="translate(19.15 -1.8)"/></g><g id="j" fill-rule="evenodd"><path d="M.45-.7Q-.05.4-1-.45q-.15-.4.1-.7l.25-.3.1-.05h.25v-.05q.65.1.75.7v.15m1.6-.65Q2.85-.85 2 0l-.3.15-.7-.4-.05-.3V-1q.2-.45.65-.5h.1v-.05l.35.2M.85 1.1q-.5 1.1-1.45.25-.15-.4.1-.7l.25-.3.1-.05H.1V.25q.65.1.75.7v.15" fill="#fff" transform="translate(3.6 3.35)"/><path d="M.45-.7v-.15q-.1-.6-.75-.7v.05h-.25l-.1.05-.25.3q-.25.3-.1.7Q-.05.4.45-.7m1.15-.8q-.45.05-.65.5v.45l.05.3.7.4L2 0q.85-.85.05-1.35Q3.25-1.1 3.5.3q.2 1.2-.95 1.1h-.2q.35.65-.65 1.65L.6 3.2l-1-.95q-.85.45-2.05.3l-.35-.2-.05-.3V1.6l.35-.45-1-.45-.1-.35q.25-1.55 1.95-1.7-.4-.7.55-1.45l1-.55q2.5.1 1.7 1.85M.85 1.1V.95Q.75.35.1.25V.3h-.25l-.1.05-.25.3q-.25.3-.1.7.95.85 1.45-.25" fill="#f9c" transform="translate(3.6 3.35)"/></g><g id="k" fill-rule="evenodd"><path d="M1.9-.95q-.65.1-1.05.65L.8-.15l.1.3q.75.85 1.65.1l.15-.2q.35-1-.8-1M.3-.7l.3-.2Q1.1-2-.2-2.05l-.4.15q-.45.25-.35.75Q-.5-.5.3-.7m2.3-2.55 1.5.15q1.15 1.85-.55 2.25l.95 1q.6.95.45 2.15-1.8 1.15-3.75-.35.05 1.2-1.05 2.1-1.1.85-2.5-1.65l-.85-.1-1.5-.65Q-6.05-.05-2.45-1.2l-.2-1.4q-.1-.95 1.25-1.25l2.4-.3q.6.3.75 1.3l.85-.4M-1.45.45q-.1.45.3.65.7.35 1.2-.25.7-.95-.45-1.1-.65.15-1.05.7" fill="#f39" transform="translate(5.05 4.15)"/><path d="M.3-.7q-.8.2-1.25-.45-.1-.5.35-.75l.4-.15Q1.1-2 .6-.9l-.3.2m1.6-.25q1.15 0 .8 1l-.15.2Q1.65 1 .9.15l-.1-.3.05-.15q.4-.55 1.05-.65M-1.45.45q.4-.55 1.05-.7Q.75-.1.05.85q-.5.6-1.2.25-.4-.2-.3-.65" fill="#fc0" transform="translate(5.05 4.15)"/></g><g id="l"><path d="M-.4 1.7 1.2.8Q2.25.25 3.6.5q1.3.25 1.45 1.3.05 1-2.15 1.75Q6.65 5.8 1.75 6.9q2.8 5.65-3.05 1.6l-.5.55.95-5.45.45-1.9" fill="#fff" fill-rule="evenodd" transform="translate(1.8 .1)"/><path d="M-1.3 8.5q5.85 4.05 3.05-1.6 4.9-1.1 1.15-3.35Q5.1 2.8 5.05 1.8 4.9.75 3.6.5 2.25.25 1.2.8l-1.6.9" fill="none" stroke="#09c" stroke-linecap="round" stroke-linejoin="round" transform="translate(1.8 .1)"/></g><path d="M27.35 7.4q2.15 4.15 3.55 8.75 1.45 4.7 1.15 9.5-.35 4.95-4.2 8.1-3.8 3.2-8.75 4.05l-2.6.2q-3.6 0-7.05-1.15-4.65-1.6-7.1-5.5Q-.2 27.4.05 23q.2-4.4 2-9.3Q3.85 8.75 7 5.05 10.1 1.3 14.7.1l1.8-.1q1.9.05 3.7.8 4.75 2.05 7.15 6.6" fill="#fff" fill-rule="evenodd" transform="translate(-.05)" id="h"/><path d="M31.9 20.6q-.3-2.25-1-4.45-1.4-4.6-3.55-8.75-2.4-4.55-7.15-6.6-2.65-1.1-5.5-.7Q10.1 1.3 7 5.05q-3.15 3.7-4.95 8.65Q.7 17.3.25 20.6" fill="none" stroke="#000" stroke-linecap="round" stroke-linejoin="round" transform="translate(.25 .5)" id="i"/><path d="M-11.85 2.9q3.3 4 3.2 6.2l1.4-.25Q-1.1 8 4.4 10.45 10.1 8.5 16.05 8.4l2.45-.05q.45-3.25 1.25-6.05" fill="none" stroke="#09c" stroke-linecap="round" stroke-linejoin="round" transform="translate(12.35 -1.8)" id="g"/></defs></svg>

<?xml version="1.0" encoding="UTF-8" standalone="no"?>
<svg xmlns:xlink="http://www.w3.org/1999/xlink" height="82.0px" width="84.85px" xmlns="http://www.w3.org/2000/svg">
  <g transform="matrix(1.0, 0.0, 0.0, 1.0, 37.4, 42.25)">
    <use height="38.0" transform="matrix(1.0, 0.0, 0.0, 1.0, -11.95, -17.45)" width="32.05" xlink:href="#sprite0"/>
    <use height="21.6" transform="matrix(1.0, 0.0, 0.0, 1.0, -12.25, -17.95)" width="32.65" xlink:href="#sprite1"/>
    <use height="30.1" transform="matrix(1.0, 0.0, 0.0, 1.0, -19.15, 1.8)" width="46.7" xlink:href="#shape2"/>
    <use height="6.55" transform="matrix(1.0, 0.0, 0.0, 1.0, 11.35, 12.5)" width="7.15" xlink:href="#sprite2"/>
    <use height="8.4" transform="matrix(1.0, 0.0, 0.0, 1.0, -0.25, 13.6)" width="10.05" xlink:href="#sprite3"/>
    <use height="6.55" transform="matrix(1.0, 0.0, 0.0, 1.0, -8.9, 12.75)" width="7.15" xlink:href="#sprite2"/>
    <use height="10.8" transform="matrix(1.0, 0.0, 0.0, 1.0, 17.85, 1.7)" width="7.35" xlink:href="#sprite4"/>
    <use height="10.8" transform="matrix(-1.0, 0.0, 0.0, 1.0, -9.85, 1.7)" width="7.35" xlink:href="#sprite4"/>
    <use height="9.15" transform="matrix(1.0, 0.0, 0.0, 1.0, -12.35, 1.8)" width="32.6" xlink:href="#shape6"/>
  </g>
  <defs>
    <g id="sprite0" transform="matrix(1.0, 0.0, 0.0, 1.0, -0.05, 0.0)">
      <use height="38.0" transform="matrix(1.0, 0.0, 0.0, 1.0, 0.05, 0.0)" width="32.05" xlink:href="#shape0"/>
    </g>
    <g id="shape0" transform="matrix(1.0, 0.0, 0.0, 1.0, -0.05, 0.0)">
      <path d="M27.35 7.4 Q29.5 11.55 30.9 16.15 32.35 20.85 32.05 25.65 31.7 30.6 27.85 33.75 24.05 36.95 19.1 37.8 L16.5 38.0 Q12.9 38.0 9.45 36.85 4.8 35.25 2.35 31.35 -0.2 27.4 0.05 23.0 0.25 18.6 2.05 13.7 3.85 8.75 7.0 5.05 10.1 1.3 14.7 0.1 L16.5 0.0 Q18.4 0.05 20.2 0.8 24.95 2.85 27.35 7.4" fill="#ffffff" fill-rule="evenodd" stroke="none"/>
    </g>
    <g id="sprite1" transform="matrix(1.0, 0.0, 0.0, 1.0, 0.25, 0.5)">
      <use height="21.6" transform="matrix(1.0, 0.0, 0.0, 1.0, -0.25, -0.5)" width="32.65" xlink:href="#shape1"/>
    </g>
    <g id="shape1" transform="matrix(1.0, 0.0, 0.0, 1.0, 0.25, 0.5)">
      <path d="M31.9 20.6 Q31.6 18.35 30.9 16.15 29.5 11.55 27.35 7.4 24.95 2.85 20.2 0.8 17.55 -0.3 14.7 0.1 10.1 1.3 7.0 5.05 3.85 8.75 2.05 13.7 0.7 17.3 0.25 20.6" fill="none" stroke="#000000" stroke-linecap="round" stroke-linejoin="round" stroke-width="1.0"/>
    </g>
    <g id="shape2" transform="matrix(1.0, 0.0, 0.0, 1.0, 19.15, -1.8)">
      <path d="M-1.9 25.15 L-1.55 26.05 1.8 26.25 2.1 25.75 Q3.55 27.5 5.8 27.0 L6.35 26.45 6.4 26.0 7.05 26.3 9.45 26.6 10.2 26.5 10.5 25.85 14.3 25.75 14.4 25.3 16.0 25.65 Q17.3 25.55 17.85 24.4 L21.0 23.9 21.9 23.0 22.75 23.25 Q25.2 23.25 26.3 21.05 L27.05 25.3 26.0 26.1 24.55 26.4 Q23.65 26.05 23.05 25.3 22.75 26.15 22.1 26.7 21.45 27.2 20.7 26.95 L19.6 26.45 19.25 27.3 18.5 28.55 17.65 29.05 Q16.75 29.3 15.95 28.8 L15.15 30.8 11.35 29.8 11.35 30.8 10.3 31.2 9.45 31.2 Q8.35 30.75 7.35 30.1 L6.8 30.7 5.8 31.25 Q4.85 31.6 4.25 31.0 L3.1 29.95 Q2.15 31.15 0.5 31.15 -0.85 30.85 -1.8 29.6 -2.5 30.65 -3.75 30.85 -5.75 30.8 -6.75 28.8 L-8.0 29.35 Q-8.65 29.7 -9.4 29.15 -10.25 28.45 -10.65 27.35 -11.3 28.0 -12.3 27.9 L-13.35 27.35 -13.85 26.7 Q-14.3 25.25 -14.25 24.05 -14.9 24.45 -15.6 24.65 L-16.6 24.75 Q-18.15 24.3 -18.65 22.75 L-17.0 20.5 Q-16.05 21.8 -14.45 22.05 L-12.75 21.85 -12.15 21.55 Q-12.55 22.7 -11.6 23.4 -11.0 23.8 -10.25 23.6 L-9.25 23.05 -9.2 24.4 -8.1 25.2 -5.9 24.8 Q-5.7 25.7 -4.75 25.9 -3.1 26.35 -1.9 25.15" fill="#0099cc" fill-rule="evenodd" stroke="none"/>
      <path d="M20.4 13.5 Q23.75 15.85 25.55 19.45 L26.3 21.05 Q25.2 23.25 22.75 23.25 L21.9 23.0 21.0 23.9 17.85 24.4 Q17.3 25.55 16.0 25.65 L14.4 25.3 14.3 25.75 10.5 25.85 10.2 26.5 9.45 26.6 7.05 26.3 6.4 26.0 6.35 26.45 5.8 27.0 Q3.55 27.5 2.1 25.75 L1.8 26.25 -1.55 26.05 -1.9 25.15 -0.7 18.6 0.0 17.95 Q1.1 17.1 2.65 17.25 L2.85 17.5 Q3.5 18.6 3.65 20.05 L3.9 23.95 4.1 22.55 4.5 19.35 Q4.6 18.65 5.0 17.9 L6.65 18.05 6.8 18.25 Q7.65 21.5 7.75 24.65 L7.8 18.35 8.2 17.7 9.6 17.65 11.15 21.7 10.35 18.45 10.45 18.4 11.65 17.3 11.95 17.1 12.25 17.25 12.85 17.85 14.0 20.2 14.9 22.8 14.7 21.6 14.1 18.15 Q14.05 17.7 14.15 17.25 L14.55 16.25 15.25 16.2 15.55 16.45 Q16.6 17.25 17.1 18.45 L18.0 20.45 18.5 21.65 16.95 16.25 17.15 16.0 Q17.55 15.65 18.05 15.45 L18.75 15.25 21.45 20.3 19.45 14.55 20.4 13.5 M-17.0 20.5 L-14.85 18.0 Q-12.55 15.25 -9.35 13.5 -11.0 10.15 -11.6 6.4 L-11.85 2.9 Q-10.55 4.5 -9.4 6.45 -8.65 7.7 -8.65 9.1 L-5.2 11.1 Q-3.9 11.85 -3.65 13.3 -1.35 11.0 1.55 11.95 2.55 12.15 3.3 12.95 L4.6 14.5 Q5.8 12.2 8.3 11.9 10.8 12.0 13.05 13.5 L13.25 12.4 Q13.35 11.6 12.95 10.85 L13.0 10.8 18.5 8.35 19.75 2.3 20.05 5.05 Q20.45 9.05 18.8 12.75 16.5 13.75 13.95 14.4 10.65 15.4 7.25 15.55 3.7 16.0 0.2 15.55 L-7.35 14.2 -9.35 13.5 -8.95 14.4 Q-9.15 15.5 -9.75 16.3 L-11.65 18.4 Q-10.8 17.85 -9.85 17.4 -9.25 17.0 -8.5 16.9 L-8.25 17.05 -9.55 19.65 Q-8.05 18.0 -6.1 17.1 -5.3 16.8 -5.0 17.5 L-6.6 22.25 -4.7 18.4 Q-3.95 16.85 -2.3 17.1 L-1.6 17.55 -1.9 25.15 Q-3.1 26.35 -4.75 25.9 -5.7 25.7 -5.9 24.8 L-8.1 25.2 -9.2 24.4 -9.25 23.05 -10.25 23.6 Q-11.0 23.8 -11.6 23.4 -12.55 22.7 -12.15 21.55 L-12.75 21.85 -14.45 22.05 Q-16.05 21.8 -17.0 20.5" fill="#ffffff" fill-rule="evenodd" stroke="none"/>
      <path d="M20.4 13.5 L19.45 14.55 21.45 20.3 18.75 15.25 18.05 15.45 Q17.55 15.65 17.15 16.0 L16.95 16.25 18.5 21.65 18.0 20.45 17.1 18.45 Q16.6 17.25 15.55 16.45 L15.25 16.2 14.55 16.25 14.15 17.25 Q14.05 17.7 14.1 18.15 L14.7 21.6 14.9 22.8 14.0 20.2 12.85 17.85 12.25 17.25 11.95 17.1 11.65 17.3 10.45 18.4 10.35 18.45 11.15 21.7 9.6 17.65 8.2 17.7 7.8 18.35 7.75 24.65 Q7.65 21.5 6.8 18.25 L6.65 18.05 5.0 17.9 Q4.6 18.65 4.5 19.35 L4.1 22.55 3.9 23.95 3.65 20.05 Q3.5 18.6 2.85 17.5 L2.65 17.25 Q1.1 17.1 0.0 17.95 L-0.7 18.6 -1.9 25.15 -1.6 17.55 -2.3 17.1 Q-3.95 16.85 -4.7 18.4 L-6.6 22.25 -5.0 17.5 Q-5.3 16.8 -6.1 17.1 -8.05 18.0 -9.55 19.65 L-8.25 17.05 -8.5 16.9 Q-9.25 17.0 -9.85 17.4 -10.8 17.85 -11.65 18.4 L-9.75 16.3 Q-9.15 15.5 -8.95 14.4 L-9.35 13.5 -7.35 14.2 0.2 15.55 Q3.7 16.0 7.25 15.55 10.65 15.4 13.95 14.4 16.5 13.75 18.8 12.75 L20.4 13.5 M-8.65 9.1 L-7.25 8.85 -2.7 8.7 1.6 9.65 4.4 10.45 7.35 9.85 Q10.2 9.1 13.15 8.6 L18.5 8.35 13.0 10.8 12.95 10.85 Q13.35 11.6 13.25 12.4 L13.05 13.5 Q10.8 12.0 8.3 11.9 5.8 12.2 4.6 14.5 L3.3 12.95 Q2.55 12.15 1.55 11.95 -1.35 11.0 -3.65 13.3 -3.9 11.85 -5.2 11.1 L-8.65 9.1" fill="#bad8ff" fill-rule="evenodd" stroke="none"/>
      <path d="M26.3 21.05 L25.55 19.45 Q23.75 15.85 20.4 13.5 M27.05 25.3 L26.0 26.1 24.55 26.4 Q23.65 26.05 23.05 25.3 22.75 26.15 22.1 26.7 21.45 27.2 20.7 26.95 L19.6 26.45 19.25 27.3 18.5 28.55 17.65 29.05 Q16.75 29.3 15.95 28.8 L15.15 30.8 11.35 29.8 11.35 30.8 10.3 31.2 9.45 31.2 Q8.35 30.75 7.35 30.1 L6.8 30.7 5.8 31.25 Q4.85 31.6 4.25 31.0 L3.1 29.95 Q2.15 31.15 0.5 31.15 -0.85 30.85 -1.8 29.6 -2.5 30.65 -3.75 30.85 -5.75 30.8 -6.75 28.8 L-8.0 29.35 Q-8.65 29.7 -9.4 29.15 -10.25 28.45 -10.65 27.35 -11.3 28.0 -12.3 27.9 L-13.35 27.35 -13.85 26.7 Q-14.3 25.25 -14.25 24.05 -14.9 24.45 -15.6 24.65 L-16.6 24.75 Q-18.15 24.3 -18.65 22.75 L-17.0 20.5 -14.85 18.0 Q-12.55 15.25 -9.35 13.5 -11.0 10.15 -11.6 6.4 L-11.85 2.9" fill="none" stroke="#000000" stroke-linecap="round" stroke-linejoin="round" stroke-width="1.0"/>
      <path d="M26.3 21.05 L27.05 25.3 M19.75 2.3 L20.05 5.05 Q20.45 9.05 18.8 12.75 L20.4 13.5" fill="none" stroke="#333333" stroke-linecap="round" stroke-linejoin="round" stroke-width="1.0"/>
    </g>
    <g id="sprite2" transform="matrix(1.0, 0.0, 0.0, 1.0, 3.6, 3.35)">
      <use height="6.55" transform="matrix(1.0, 0.0, 0.0, 1.0, -3.6, -3.35)" width="7.15" xlink:href="#shape3"/>
    </g>
    <g id="shape3" transform="matrix(1.0, 0.0, 0.0, 1.0, 3.6, 3.35)">
      <path d="M0.45 -0.7 Q-0.05 0.4 -1.0 -0.45 -1.15 -0.85 -0.9 -1.15 L-0.65 -1.45 -0.55 -1.5 -0.3 -1.5 -0.3 -1.55 Q0.35 -1.45 0.45 -0.85 L0.45 -0.7 M2.05 -1.35 Q2.85 -0.85 2.0 0.0 L1.7 0.15 1.0 -0.25 0.95 -0.55 0.95 -1.0 Q1.15 -1.45 1.6 -1.5 L1.7 -1.5 1.7 -1.55 2.05 -1.35 M0.85 1.1 Q0.35 2.2 -0.6 1.35 -0.75 0.95 -0.5 0.65 L-0.25 0.35 -0.15 0.3 0.1 0.3 0.1 0.25 Q0.75 0.35 0.85 0.95 L0.85 1.1" fill="#ffffff" fill-rule="evenodd" stroke="none"/>
      <path d="M0.45 -0.7 L0.45 -0.85 Q0.35 -1.45 -0.3 -1.55 L-0.3 -1.5 -0.55 -1.5 -0.65 -1.45 -0.9 -1.15 Q-1.15 -0.85 -1.0 -0.45 -0.05 0.4 0.45 -0.7 M1.6 -1.5 Q1.15 -1.45 0.95 -1.0 L0.95 -0.55 1.0 -0.25 1.7 0.15 2.0 0.0 Q2.85 -0.85 2.05 -1.35 3.25 -1.1 3.5 0.3 3.7 1.5 2.55 1.4 L2.35 1.4 Q2.7 2.05 1.7 3.05 L0.6 3.2 -0.4 2.25 Q-1.25 2.7 -2.45 2.55 L-2.8 2.35 -2.85 2.05 -2.85 1.6 -2.5 1.15 -3.5 0.7 -3.6 0.35 Q-3.35 -1.2 -1.65 -1.35 -2.05 -2.05 -1.1 -2.8 L-0.1 -3.35 Q2.4 -3.25 1.6 -1.5 M0.85 1.1 L0.85 0.95 Q0.75 0.35 0.1 0.25 L0.1 0.3 -0.15 0.3 -0.25 0.35 -0.5 0.65 Q-0.75 0.95 -0.6 1.35 0.35 2.2 0.85 1.1" fill="#ff99cc" fill-rule="evenodd" stroke="none"/>
    </g>
    <g id="sprite3" transform="matrix(1.0, 0.0, 0.0, 1.0, 5.05, 4.15)">
      <use height="8.4" transform="matrix(1.0, 0.0, 0.0, 1.0, -5.05, -4.15)" width="10.05" xlink:href="#shape4"/>
    </g>
    <g id="shape4" transform="matrix(1.0, 0.0, 0.0, 1.0, 5.05, 4.15)">
      <path d="M1.9 -0.95 Q1.25 -0.85 0.85 -0.3 L0.8 -0.15 0.9 0.15 Q1.65 1.0 2.55 0.25 L2.7 0.05 Q3.05 -0.95 1.9 -0.95 M0.3 -0.7 L0.6 -0.9 Q1.1 -2.0 -0.2 -2.05 L-0.6 -1.9 Q-1.05 -1.65 -0.95 -1.15 -0.5 -0.5 0.3 -0.7 M2.6 -3.25 L4.1 -3.1 Q5.25 -1.25 3.55 -0.85 L4.5 0.15 Q5.1 1.1 4.95 2.3 3.15 3.45 1.2 1.95 1.25 3.15 0.15 4.05 -0.95 4.9 -2.35 2.4 L-3.2 2.3 -4.7 1.65 Q-6.05 -0.05 -2.45 -1.2 L-2.65 -2.6 Q-2.75 -3.55 -1.4 -3.85 L1.0 -4.15 Q1.6 -3.85 1.75 -2.85 L2.6 -3.25 M-1.45 0.45 Q-1.55 0.9 -1.15 1.1 -0.45 1.45 0.05 0.85 0.75 -0.1 -0.4 -0.25 -1.05 -0.1 -1.45 0.45" fill="#ff3399" fill-rule="evenodd" stroke="none"/>
      <path d="M0.3 -0.7 Q-0.5 -0.5 -0.95 -1.15 -1.05 -1.65 -0.6 -1.9 L-0.2 -2.05 Q1.1 -2.0 0.6 -0.9 L0.3 -0.7 M1.9 -0.95 Q3.05 -0.95 2.7 0.05 L2.55 0.25 Q1.65 1.0 0.9 0.15 L0.8 -0.15 0.85 -0.3 Q1.25 -0.85 1.9 -0.95 M-1.45 0.45 Q-1.05 -0.1 -0.4 -0.25 0.75 -0.1 0.05 0.85 -0.45 1.45 -1.15 1.1 -1.55 0.9 -1.45 0.45" fill="#ffcc00" fill-rule="evenodd" stroke="none"/>
    </g>
    <g id="sprite4" transform="matrix(1.0, 0.0, 0.0, 1.0, 1.8, 0.1)">
      <use height="10.8" transform="matrix(1.0, 0.0, 0.0, 1.0, -1.8, -0.1)" width="7.35" xlink:href="#shape5"/>
    </g>
    <g id="shape5" transform="matrix(1.0, 0.0, 0.0, 1.0, 1.8, 0.1)">
      <path d="M-0.4 1.7 L1.2 0.8 Q2.25 0.25 3.6 0.5 4.9 0.75 5.05 1.8 5.1 2.8 2.9 3.55 6.65 5.8 1.75 6.9 4.55 12.55 -1.3 8.5 L-1.8 9.05 -0.85 3.6 -0.4 1.7" fill="#ffffff" fill-rule="evenodd" stroke="none"/>
      <path d="M-1.3 8.5 Q4.55 12.55 1.75 6.9 6.65 5.8 2.9 3.55 5.1 2.8 5.05 1.8 4.9 0.75 3.6 0.5 2.25 0.25 1.2 0.8 L-0.4 1.7" fill="none" stroke="#0099cc" stroke-linecap="round" stroke-linejoin="round" stroke-width="1.0"/>
    </g>
    <g id="shape6" transform="matrix(1.0, 0.0, 0.0, 1.0, 12.35, -1.8)">
      <path d="M-11.85 2.9 Q-8.55 6.9 -8.65 9.1 L-7.25 8.85 Q-1.1 8.0 4.4 10.45 10.1 8.5 16.05 8.4 L18.5 8.35 Q18.95 5.1 19.75 2.3" fill="none" stroke="#0099cc" stroke-linecap="round" stroke-linejoin="round" stroke-width="1.0"/>
    </g>
  </defs>
</svg>
